lending/img/svg/bx-ui-slider-handle.svg

<svg width="9" height="14" fill="none" xmlns="http://www.w3.org/2000/svg"><path fill-rule="evenodd" clip-rule="evenodd" d="M1 0H0v14h1V0zm3 0h1v14H4V0zm4 0h1v14H8V0z" fill="#fff" fill-opacity=".6"/></svg>

<svg width="9" height="14" viewBox="0 0 9 14" fill="none" xmlns="http://www.w3.org/2000/svg">
<path fill-rule="evenodd" clip-rule="evenodd" d="M1 0H0V14H1V0ZM4 0H5V14H4V0ZM8 0H9V14H8V0Z" fill="white" fill-opacity="0.6"/>
</svg>
